X: 24390
T: Lovely Lough Sheelin
R: strathspey
M: 4/4
K: Dmajor
|:A>F|D2 F>A d>AF>D|E2 =c>G E>AG>E|D2 F>A d2 F>A|f>de>c d2:|
A>g|f>da>f d>ef>a|g2 e>d d>Ac>A|d>fa>f d2 a>f|g>be>c d>Ac>g|
f2 a>f d2 a>f|g>Be>d c2 A>g|f>ae>c d>ef>g|a>fe>c d2||

